Numix-GalliumOS/64/mimetypes/application-x-bzip-compressed-tar.svg

<svg xmlns="http://www.w3.org/2000/svg" xmlns:xlink="http://www.w3.org/1999/xlink" width="64px" height="64px" viewBox="0 0 64 64" version="1.1">
<g id="surface1">
<path style=" stroke:none;fill-rule:nonzero;fill:rgb(75.686275%,58.431373%,32.54902%);fill-opacity:1;" d="M 10.671875 0 C 9.296875 0 8 1.355469 8 2.789062 L 8 61.210938 C 8 62.566406 9.375 64 10.671875 64 L 53.328125 64 C 54.625 64 56 62.566406 56 61.210938 L 56 18 L 38 0 Z M 10.671875 0 "/>
<path style=" stroke:none;fill-rule:nonzero;fill:rgb(0%,0%,0%);fill-opacity:0.196078;" d="M 8 48 L 8 61.335938 C 8 62.632812 9.375 64 10.664062 64 L 53.335938 64 C 54.625 64 56 62.632812 56 61.335938 L 56 48 Z M 8 48 "/>
<path style=" stroke:none;fill-rule:nonzero;fill:rgb(0%,0%,0%);fill-opacity:0.196078;" d="M 42 18 L 56 32 L 56 18 Z M 42 18 "/>
<path style=" stroke:none;fill-rule:nonzero;fill:rgb(100%,100%,100%);fill-opacity:1;" d="M 26.875 50.996094 L 26.875 52.804688 L 23.664062 52.804688 L 23.664062 62 L 21.21875 62 L 21.21875 52.804688 L 18 52.804688 L 18 50.996094 L 26.875 50.996094 "/>
<path style=" stroke:none;fill-rule:nonzero;fill:rgb(100%,100%,100%);fill-opacity:0.392157;" d="M 38 0 L 55.984375 18 L 40.757812 18 C 39.410156 18 38 16.574219 38 15.226562 Z M 38 0 "/>
<path style=" stroke:none;fill-rule:nonzero;fill:rgb(100%,100%,100%);fill-opacity:1;" d="M 36.613281 58.671875 C 36.613281 59.332031 36.492188 59.894531 36.242188 60.339844 C 35.996094 60.785156 35.648438 61.140625 35.21875 61.414062 C 34.796875 61.667969 34.285156 61.859375 33.699219 61.984375 C 33.121094 62.089844 32.496094 62.140625 31.828125 62.140625 C 31.28125 62.140625 30.730469 62.105469 30.152344 62.050781 C 29.574219 62 28.996094 61.925781 28.433594 61.820312 L 28.433594 51.136719 C 28.894531 51.0625 29.398438 51.003906 29.953125 50.957031 C 30.507812 50.898438 31.050781 50.871094 31.585938 50.871094 C 32.511719 50.871094 33.253906 50.957031 33.832031 51.136719 C 34.410156 51.300781 34.863281 51.523438 35.195312 51.8125 C 35.523438 52.085938 35.746094 52.390625 35.863281 52.738281 C 35.988281 53.078125 36.042969 53.421875 36.042969 53.769531 C 36.042969 54.289062 35.894531 54.753906 35.605469 55.15625 C 35.335938 55.554688 34.964844 55.875 34.484375 56.113281 C 35.320312 56.386719 35.871094 56.75 36.160156 57.210938 C 36.464844 57.675781 36.613281 58.160156 36.613281 58.671875 M 30.859375 57.179688 L 30.859375 60.167969 C 31.027344 60.191406 31.214844 60.207031 31.414062 60.21875 C 31.621094 60.234375 31.828125 60.242188 32.023438 60.242188 C 32.296875 60.242188 32.570312 60.21875 32.832031 60.183594 C 33.089844 60.132812 33.320312 60.058594 33.519531 59.953125 C 33.734375 59.835938 33.898438 59.671875 34.03125 59.472656 C 34.164062 59.257812 34.230469 58.996094 34.230469 58.671875 C 34.230469 58.136719 34.039062 57.757812 33.660156 57.535156 C 33.289062 57.292969 32.792969 57.179688 32.15625 57.179688 L 30.859375 57.179688 M 31.800781 55.363281 C 32.421875 55.363281 32.890625 55.246094 33.207031 55.007812 C 33.519531 54.761719 33.675781 54.421875 33.675781 54 C 33.675781 53.738281 33.632812 53.53125 33.542969 53.375 C 33.445312 53.207031 33.320312 53.085938 33.164062 53.003906 C 33.007812 52.910156 32.824219 52.84375 32.609375 52.828125 C 32.40625 52.789062 32.191406 52.769531 31.957031 52.769531 C 31.777344 52.769531 31.585938 52.78125 31.390625 52.789062 C 31.191406 52.804688 31.019531 52.820312 30.859375 52.84375 L 30.859375 55.363281 L 31.800781 55.363281 "/>
<path style=" stroke:none;fill-rule:evenodd;fill:rgb(97.647059%,97.647059%,97.647059%);fill-opacity:1;" d="M 18 0 L 24 0 L 24 6 L 18 6 Z M 18 0 "/>
<path style=" stroke:none;fill-rule:nonzero;fill:rgb(100%,100%,100%);fill-opacity:1;" d="M 46 52.523438 C 45.4375 53.308594 44.917969 54.042969 44.441406 54.726562 C 43.96875 55.414062 43.53125 56.074219 43.117188 56.699219 C 42.714844 57.320312 42.328125 57.914062 41.964844 58.492188 C 41.609375 59.0625 41.261719 59.632812 40.929688 60.183594 L 46.179688 60.183594 L 46.179688 62 L 38.132812 62 L 38.132812 60.738281 C 38.421875 60.226562 38.734375 59.6875 39.058594 59.136719 C 39.386719 58.566406 39.757812 57.964844 40.164062 57.320312 C 40.578125 56.683594 41.015625 55.992188 41.484375 55.238281 C 41.972656 54.496094 42.507812 53.6875 43.085938 52.804688 L 38.390625 52.804688 L 38.390625 50.996094 L 46 50.996094 L 46 52.523438 "/>
<path style=" stroke:none;fill-rule:evenodd;fill:rgb(97.647059%,97.647059%,97.647059%);fill-opacity:1;" d="M 24 6 L 30 6 L 30 12 L 24 12 Z M 24 6 "/>
<path style=" stroke:none;fill-rule:evenodd;fill:rgb(97.647059%,97.647059%,97.647059%);fill-opacity:1;" d="M 18 12 L 24 12 L 24 18 L 18 18 Z M 18 12 "/>
<path style=" stroke:none;fill-rule:evenodd;fill:rgb(97.647059%,97.647059%,97.647059%);fill-opacity:1;" d="M 24 18 L 30 18 L 30 24 L 24 24 Z M 24 18 "/>
<path style=" stroke:none;fill-rule:evenodd;fill:rgb(97.647059%,97.647059%,97.647059%);fill-opacity:1;" d="M 18 24 L 24 24 L 24 30 L 18 30 Z M 18 24 "/>
<path style=" stroke:none;fill-rule:evenodd;fill:rgb(97.647059%,97.647059%,97.647059%);fill-opacity:1;" d="M 18 32 L 30 32 L 30 44 L 18 44 Z M 18 32 "/>
</g>
</svg>

<svg xmlns="http://www.w3.org/2000/svg" viewBox="0 0 64 64">
 <g>
  <path d="m 10.672 0 c -1.375 0 -2.672 1.355 -2.672 2.789 l 0 58.42 c 0 1.355 1.375 2.789 2.672 2.789 l 42.656 0 c 1.297 0 2.672 -1.434 2.672 -2.789 l 0 -43.21 l -18 -18 m -27.328 0" style="fill:#c19553;fill-opacity:1;stroke:none;fill-rule:nonzero"/>
  <path d="m 8 48 l 0 13.336 c 0 1.297 1.375 2.664 2.664 2.664 l 42.672 0 c 1.289 0 2.664 -1.367 2.664 -2.664 l 0 -13.336 m -48 0" style="fill:#000;fill-opacity:0.196;stroke:none;fill-rule:nonzero"/>
  <path d="m 42 18 l 14 14 l 0 -14 m -14 0" style="fill:#000;fill-opacity:0.196;stroke:none;fill-rule:nonzero"/>
  <path d="m 26.875 50.996 l 0 1.809 l -3.211 0 l 0 9.195 l -2.445 0 l 0 -9.195 l -3.219 0 l 0 -1.809 l 8.875 0" style="fill:#fff;fill-opacity:1;stroke:none;fill-rule:nonzero"/>
  <path d="m 38 0 l 17.984 18 l -15.227 0 c -1.348 0 -2.758 -1.426 -2.758 -2.773 m 0 -15.227" style="fill:#fff;fill-opacity:0.392;stroke:none;fill-rule:nonzero"/>
  <path d="m 36.613 58.672 c 0 0.66 -0.121 1.223 -0.371 1.668 c -0.246 0.445 -0.594 0.801 -1.023 1.074 c -0.422 0.254 -0.934 0.445 -1.52 0.57 c -0.578 0.105 -1.203 0.156 -1.871 0.156 c -0.547 0 -1.098 -0.035 -1.676 -0.09 c -0.578 -0.051 -1.156 -0.125 -1.719 -0.23 l 0 -10.684 c 0.461 -0.074 0.965 -0.133 1.52 -0.18 c 0.555 -0.059 1.098 -0.086 1.633 -0.086 c 0.926 0 1.668 0.086 2.246 0.266 c 0.578 0.164 1.031 0.387 1.363 0.676 c 0.328 0.273 0.551 0.578 0.668 0.926 c 0.125 0.34 0.18 0.684 0.18 1.031 c 0 0.52 -0.148 0.984 -0.438 1.387 c -0.27 0.398 -0.641 0.719 -1.121 0.957 c 0.836 0.273 1.387 0.637 1.676 1.098 c 0.305 0.465 0.453 0.949 0.453 1.461 m -5.754 -1.492 l 0 2.988 c 0.168 0.023 0.355 0.039 0.555 0.051 c 0.207 0.016 0.414 0.023 0.609 0.023 c 0.273 0 0.547 -0.023 0.809 -0.059 c 0.258 -0.051 0.488 -0.125 0.688 -0.23 c 0.215 -0.117 0.379 -0.281 0.512 -0.48 c 0.133 -0.215 0.199 -0.477 0.199 -0.801 c 0 -0.535 -0.191 -0.914 -0.57 -1.137 c -0.371 -0.242 -0.867 -0.355 -1.504 -0.355 l -1.297 0 m 0.941 -1.816 c 0.621 0 1.09 -0.117 1.406 -0.355 c 0.313 -0.246 0.469 -0.586 0.469 -1.01 c 0 -0.262 -0.043 -0.469 -0.133 -0.625 c -0.098 -0.168 -0.223 -0.289 -0.379 -0.371 c -0.156 -0.094 -0.34 -0.16 -0.555 -0.176 c -0.203 -0.039 -0.418 -0.059 -0.652 -0.059 c -0.18 0 -0.371 0.012 -0.566 0.02 c -0.199 0.016 -0.371 0.031 -0.531 0.055 l 0 2.52 l 0.941 0" style="fill:#fff;fill-opacity:1;stroke:none;fill-rule:nonzero"/>
  <path d="m 18 0 l 6 0 l 0 6 l -6 0 m 0 -6" style="fill:#f9f9f9;fill-opacity:1;stroke:none;fill-rule:evenodd"/>
  <path d="m 46 52.52 c -0.563 0.785 -1.082 1.52 -1.559 2.203 c -0.473 0.688 -0.91 1.348 -1.324 1.973 c -0.402 0.621 -0.789 1.215 -1.152 1.793 c -0.355 0.57 -0.703 1.141 -1.035 1.691 l 5.25 0 l 0 1.816 l -8.05 0 l 0 -1.262 c 0.289 -0.512 0.602 -1.051 0.926 -1.602 c 0.328 -0.57 0.699 -1.172 1.105 -1.816 c 0.414 -0.637 0.852 -1.328 1.32 -2.082 c 0.488 -0.742 1.023 -1.551 1.602 -2.434 l -4.695 0 l 0 -1.809 l 7.609 0 l 0 1.527" style="fill:#fff;fill-opacity:1;stroke:none;fill-rule:nonzero"/>
  <path d="m 24 6 l 6 0 l 0 6 l -6 0 m 0 -6" style="fill:#f9f9f9;fill-opacity:1;stroke:none;fill-rule:evenodd"/>
  <path d="m 18 12 l 6 0 l 0 6 l -6 0 m 0 -6" style="fill:#f9f9f9;fill-opacity:1;stroke:none;fill-rule:evenodd"/>
  <path d="m 24 18 l 6 0 l 0 6 l -6 0 m 0 -6" style="fill:#f9f9f9;fill-opacity:1;stroke:none;fill-rule:evenodd"/>
  <path d="m 18 24 l 6 0 l 0 6 l -6 0 m 0 -6" style="fill:#f9f9f9;fill-opacity:1;stroke:none;fill-rule:evenodd"/>
  <path d="m 18 32 l 12 0 l 0 12 l -12 0 m 0 -12" style="fill:#f9f9f9;fill-opacity:1;stroke:none;fill-rule:evenodd"/>
 </g>
</svg>
